X:1
T:Jack's Delight. Ru1.081
%%VWML:RutherfordVol1-2248-p41-0p41
Z:Transcription by Village Music Project, Steve Mansfield July 2015
F:http://www.village-music-project.org.uk/
F:http://www.vwml.org/record/RutherfordVol1/2248/p41
L:1/8
Q:1/4=100
K:G
(ga/b/) ag "tr"f2ed|"tr"B2AG E/E/EE2|"all quavers in ms"(ga/b/) ag "tr"f2ed|B2AG D/D/DD2:|
|:Bd-dc/d/ ec"tr"c2|Ac-cB/c/ dB"tr"B2|GB-BA/B/ cA-AB/c/|dBcA G/G/GG2:|
W:The first man Casts off and turns the 3d. woman
W:and remains in the 2d. man's place.| the first
W:woman does the same:| Hands Round all six
W:.|. Right Hand and Left :|
|:
T:As you like it. Ru1.082
B:Rutherford's Country Dances Vol 1, 1756
Z:village music project, Ruairidh Greig July 2015
M:6/8
L:1/8
Q:1/4=100
K:G
G>AG Ge2|dcB cBA|G>AG Gg2|dcB cBA|
Gg2eg2|dg2Bg2|f>ed ^c>Bc|dAFD3:|
|:A>BAA2B|c>dcc2d|e>fg efg|B3F3|
GAB EFG|ABc FGA|Bcd efg|BcAG3:|
W:The first and 2d Couple foots it and Hands Round
W:all four .| the same back again:| Cross over
W:two Couple .|. Lead up to the top foot it,
W:and Cast off :|
|:
